icon/pk/headwear.svg

<svg viewBox="0 0 48 48" fill="none" xmlns="http://www.w3.org/2000/svg" height="1em" width="1em">
  <path d="M12.4167 43C10.095 40.0682 8 35.7788 8 31C8 22.1634 15.1634 15 24 15C32.8366 15 40 22.1634 40 31C40 35.7788 37.905 40.0682 35.5833 43" stroke="black" stroke-width="4" stroke-linecap="round" stroke-linejoin="round"/>
  <path d="M34 13.5L43 5L40 17L35 18L34 13.5Z" fill="#2F88FF" stroke="black" stroke-width="4" stroke-linecap="round" stroke-linejoin="round"/>
  <path d="M14 13.5L5 5L8 17L13 18L14 13.5Z" fill="#2F88FF" stroke="black" stroke-width="4" stroke-linecap="round" stroke-linejoin="round"/>
</svg>

<svg width="48" height="48" fill="none" xmlns="http://www.w3.org/2000/svg"><path d="M12.417 43C10.095 40.068 8 35.779 8 31c0-8.837 7.163-16 16-16s16 7.163 16 16c0 4.779-2.095 9.068-4.417 12" stroke="#000" stroke-width="4" stroke-linecap="round" stroke-linejoin="round"/><path d="M34 13.5 43 5l-3 12-5 1-1-4.5ZM14 13.5 5 5l3 12 5 1 1-4.5Z" fill="#2F88FF" stroke="#000" stroke-width="4" stroke-linecap="round" stroke-linejoin="round"/></svg>
